X: 43249
T: Wolfshead, The
R: jig
M: 6/8
K: Aminor
|:A2e ~e3|fed edc|A2e ~e3|fed e2d|
A2e ~e3|fed edc|dcB cBA|BAG A3:|
|:A2A DEG|A2A DEG|AGA BAB|cBc edc|
A2A DEG|A2A DEG|AGA BAB|edc A3:|

